X: 35544
T: Rushy Field, The
R: polka
M: 2/4
K: Gmajor
|:ga/g/ eg|dB G2|DG Bd|e>f/e/ d2|
ga/g/ eg|dB G2|GA BG|EF G2:|
|:B/c/d ed|ge d2|G>A BG|B/c/d d2|
B/c/d ed|ge d2|ga/g/ ec|Ad G2:|

